svg/fluentui-system-icons/ic_fluent_device_meeting_room_remote_24_regular.svg

<svg width="24" height="24" viewBox="0 0 24 24" fill="none" xmlns="http://www.w3.org/2000/svg">
<path d="M4.09413 5.34571C4.42543 3.96976 5.65654 3 7.07202 3H16.9298C18.3453 3 19.5764 3.96976 19.9077 5.34571L21.8997 13.6191C22.4374 15.8521 20.7449 18 18.4478 18H10.5012V16.5H18.4478C19.7743 16.5 20.7516 15.2596 20.4412 13.9702L18.4491 5.69679C18.2801 4.99478 17.652 4.5 16.9298 4.5H7.07202C6.34984 4.5 5.72172 4.99478 5.55269 5.69679L4.87774 8.5H3.75013C3.60619 8.5 3.46483 8.51106 3.32686 8.53236L4.09413 5.34571ZM10.4899 20.5H17.2517C17.666 20.5 18.0018 20.1642 18.0018 19.75C18.0018 19.3358 17.666 19 17.2517 19H10.5012V20.25C10.5012 20.3343 10.4974 20.4177 10.4899 20.5ZM5.75057 14.5C6.44103 14.5 7.00076 13.9404 7.00076 13.25C7.00076 12.5596 6.44103 12 5.75057 12C5.06011 12 4.50038 12.5596 4.50038 13.25C4.50038 13.9404 5.06011 14.5 5.75057 14.5ZM2 11.25C2 10.2835 2.78362 9.5 3.75027 9.5H7.75087C8.71751 9.5 9.50114 10.2835 9.50114 11.25V20.25C9.50114 21.2165 8.71751 22 7.75087 22H3.75026C2.78362 22 2 21.2165 2 20.25V11.25ZM3.75027 11C3.61217 11 3.50023 11.1119 3.50023 11.25V20.25C3.50023 20.3881 3.61217 20.5 3.75026 20.5H7.75087C7.88896 20.5 8.00091 20.3881 8.00091 20.25V11.25C8.00091 11.1119 7.88896 11 7.75087 11H3.75027Z" fill="#212121"/>
</svg>

<svg xmlns="http://www.w3.org/2000/svg" width="24" height="24"><path d="M4.094 5.346A3.063 3.063 0 0 1 7.072 3h9.858c1.415 0 2.646.97 2.978 2.346l1.992 8.273A3.55 3.55 0 0 1 18.448 18H10.5v-1.5h7.947a2.05 2.05 0 0 0 1.993-2.53l-1.99-8.273A1.563 1.563 0 0 0 16.93 4.5H7.073c-.722 0-1.35.495-1.52 1.197L4.879 8.5H3.75c-.144 0-.285.011-.423.032l.767-3.186ZM10.49 20.5h6.762a.75.75 0 1 0 0-1.5h-6.75v1.25c0 .084-.005.168-.012.25Zm-4.74-6a1.25 1.25 0 1 0 0-2.5 1.25 1.25 0 0 0 0 2.5ZM2 11.25c0-.966.784-1.75 1.75-1.75h4a1.75 1.75 0 0 1 1.751 1.75v9A1.75 1.75 0 0 1 7.751 22h-4A1.75 1.75 0 0 1 2 20.25v-9ZM3.75 11a.25.25 0 0 0-.25.25v9c0 .138.112.25.25.25h4a.25.25 0 0 0 .25-.25v-9a.25.25 0 0 0-.25-.25h-4Z"/></svg>
